**kern	**dynam	**kern	**dynam	**kern	**dynam	**kern	**dynam	**mxhm
*part4	*part4	*part3	*part3	*part2	*part2	*part1	*part1	*part1
*staff4	*	*staff3	*	*staff2	*	*staff1	*	*
*I"Cello	*	*I"Viola	*	*I"2nd Violin	*	*I"1st Violin	*	*
*clefF4	*	*clefC3	*	*clefG2	*	*clefG2	*	*
*k[b-e-]	*	*k[b-e-]	*	*k[b-e-]	*	*k[b-e-]	*	*
*g:	*	*g:	*	*g:	*	*g:	*	*
*M4/4	*	*M4/4	*	*M4/4	*	*M4/4	*	*
*met(c)	*	*met(c)	*	*met(c)	*	*met(c)	*	*
=1	=1	=1	=1	=1	=1	=1	=1	=1
!	!	!	!	!	!	!LO:TX:a:B:t=No 3.  Allegro moderato	!	!
4r	.	4r	.	4r	.	4r	.	.
!	!	!	!LO:DY:a	!	!LO:DY:a	!	!	!
4c'	f	4e-'	f f	4g'	f	4g'	.	.b.i
4BX'	.	4d'	.	4g'	.	4dd'	.	V6
4r	.	4r	.	4r	.	4r	.	.
=2	=2	=2	=2	=2	=2	=2	=2	=2
!	!	!	!LO:DY:a	!	!LO:DY:a	!	!	!
1r	.	1r	p	2r	p	8r	.	.
.	.	.	.	.	.	(16gLL	.	V
.	.	.	.	.	.	16aJJ)	.	.
.	.	.	.	.	.	8bX'L	.	.
.	.	.	.	.	.	8cc'J	.	.
.	.	.	.	8r	.	4dd	.	V65
.	.	.	.	(16dLL	.	.	.	.
.	.	.	.	16e-JJ)	.	.	.	.
.	.	.	.	8f'L	.	4r	.	.
.	.	.	.	8g'J	.	.	.	.
=3	=3	=3	=3	=3	=3	=3	=3	=3
2r	.	8r	.	4a-	.	1r	.	iio65
.	.	8A-'L	p	.	.	.	.	.
.	.	8F'	.	4r	.	.	.	.
.	.	8E-'J	.	.	.	.	.	.
8r	.	4D'	.	2r	.	.	.	.
8F'L	p	.	.	.	.	.	.	.
8D'	.	4r	.	.	.	.	.	.
8G'J	.	.	.	.	.	.	.	.
=4	=4	=4	=4	=4	=4	=4	=4	=4
4E-'	.	4r	.	4r	.	4r	.	i6
!	!	!	!LO:DY:a	!	!	!	!	!
4c'	f	4e-'	f f	4c'	.	4g'	f	i
!	!	!	!LO:DY:a	!	!	!	!	!
4C'	.	4G'	p	8g'L	.	4ee-'	.	i\\
.	.	.	.	(16e-L	.	.	.	.
.	.	.	.	16fJJ)	.	.	.	.
4r	.	4r	.	8g'L	.	4r	.	V6
.	.	.	.	8BX'J	.	.	.	.
=5	=5	=5	=5	=5	=5	=5	=5	=5
!	!	!	!	!	!LO:DY:a	!	!	!
1r	.	1r	.	4c	p	8r	.	i
.	.	.	.	.	.	(16ccLL	.	.
.	.	.	.	.	.	16ddJJ)	.	.
.	.	.	.	4r	.	8ee-'L	.	.
.	.	.	.	.	.	8ff'J	.	.
.	.	.	.	8r	.	8gg	.	V
.	.	.	.	(16gLL	p	4r	.	.
.	.	.	.	16bXJJ)	.	.	.	.
.	.	.	.	8cc'L	.	.	.	.
.	.	.	.	8g'J	.	8r	.	.
=6	=6	=6	=6	=6	=6	=6	=6	=6
8r	.	2r	.	4e-	.	2r	.	i6
(16cLL	p	.	.	.	.	.	.	.
16dJJ)	.	.	.	.	.	.	.	.
8e-'L	.	.	.	4r	.	.	.	.
8G'J	.	.	.	.	.	.	.	.
8cZ	.	8e-'ZL	p	8r	.	8r	.	#vio65
!	!	!	!	!	!	!LO:TX:a:B:t=Adagio	!	!
8r	.	(16AL	.	8r	.	8r	.	.
.	.	16B-JJ)	.	.	.	.	.	.
4r	.	8c'L	.	4r	.	4rg	.	.
.	.	8E-'J	.	.	.	.	.	.
=7	=7	=7	=7	=7	=7	=7	=7	=7
4r	.	(2.D	.	4r	.	4r	.	V
(4FF#X	.	.	.	(4a	.	(4cc	.	V65
4GG	.	.	.	4d	.	4b-	.	i\\
4BB-)	.	4d)	.	4g)	.	8.ggL	.	VII.ii65
.	.	.	.	.	.	16ffJk)	.	.
=8	=8	=8	=8	=8	=8	=8	=8	=8
(4C	.	4G 4B-	.	4c 4g	.	(8ffL	.	V7(4)
.	.	.	.	.	.	[8eeXJ)	.	V7
!	!	!LO:TX:b:i:t=piu vivace	!	!	!	!LO:TX:b:i:t=piu vivace	!	!
8C)	.	[4G [4B-	.	8g 8b-	.	(32eeLLL]	.	.
.	.	.	.	.	.	32dd	.	.
.	.	.	.	.	.	32cc	.	.
.	.	.	.	.	.	32dd	.	.
8r	.	.	.	8r	.	32ee	.	.
.	.	.	.	.	.	32dd	.	.
.	.	.	.	.	.	32ee	.	.
.	.	.	.	.	.	32ffJJJ	.	.
2r	.	((2G] 2B-]	.	2r	.	32ggLLL	.	V43
.	.	.	.	.	.	32ff	.	.
.	.	.	.	.	.	32gg	.	.
.	.	.	.	.	.	32aa	.	.
.	.	.	.	.	.	32bb-	.	.
.	.	.	.	.	.	32ccc	.	.
.	.	.	.	.	.	32bb-	.	.
.	.	.	.	.	.	32aaJJJ	.	.
.	.	.	.	.	.	32ggLLL	.	.
.	.	.	.	.	.	32aa	.	.
.	.	.	.	.	.	32gg	.	.
.	.	.	.	.	.	32ff	.	.
.	.	.	.	.	.	32ee	.	.
.	.	.	.	.	.	32ff	.	.
.	.	.	.	.	.	32ee	.	.
.	.	.	.	.	.	32ddJJJ	.	.
=9	=9	=9	=9	=9	=9	=9	=9	=9
2r	.	[2G)) [2B-	.	2r	.	32ccLLL	.	.
.	.	.	.	.	.	32dd	.	.
.	.	.	.	.	.	32cc	.	.
.	.	.	.	.	.	32cc-X	.	.
.	.	.	.	.	.	32b-	.	.
.	.	.	.	.	.	32a	.	.
.	.	.	.	.	.	32g	.	.
.	.	.	.	.	.	32fJJJ	.	.
.	.	.	.	.	.	32eXLLL	.	.
.	.	.	.	.	.	32d	.	.
.	.	.	.	.	.	32c	.	.
.	.	.	.	.	.	32e	.	.
.	.	.	.	.	.	32g	.	.
.	.	.	.	.	.	32b-	.	.
.	.	.	.	.	.	32cc	.	.
.	.	.	.	.	.	32eeXJJJ	.	.
8r	.	8GL] 8B-]	.	8r	.	32ggLLL	.	.
.	.	.	.	.	.	32bb-	.	.
.	.	.	.	.	.	32ddd	.	.
.	.	.	.	.	.	32cccJJ)	.	.
!LO:TX:b:i:t=cresc.	!	!LO:TX:b:i:t=cresc.	!	!LO:TX:b:i:t=cresc.	!	!LO:TX:b:i:t=cresc.	!	!
(8BB-L	.	(8G	.	(8eXL	.	(8cccJ	.	V2
8AA	.	8c)	.	8f)	.	(8cccL)	.	I6
8AJ	.	(8cJ	.	[8fJ	.	[8ffJ)	.	.
=10	=10	=10	=10	=10	=10	=10	=10	=10
8B-)	.	8d)	.	8f]	.	(8ffL]	.	IV
!LO:TX:b:i:t=r	!	!LO:TX:b:i:t=r	!	!LO:TX:b:i:t=r	!	!LO:TX:b:i:t=rin	!	!
(4.BX	f	(4.f	f	[4.g	f	8dd	.	V65/V
.	.	.	.	.	.	8eeX	.	.
.	.	.	.	.	.	8ffJ)	.	.
(8B)	.	8f)	.	(8gL]	.	(8ff	.	.
4.c)	>]	(8f	>	8a	>	[4.cc)	>]	V7
.	.	4eX	]]	8g	.	.	.	.
.	.	.	.	8gJ 8b-	]]	.	.	.
=11	=11	=11	=11	=11	=11	=11	=11	=11
8FL	p	8e-L)	p	8aL)	p	8cc]	p	V7/IV
!	!	!	!	!LO:TX:b:i:t=cresc.	!	!	!	!
(8FFJ	.	8r	.	(8c	.	8r	.	.
!LO:TX:b:i:t=cresc.	!	!	!	!	!	!	!	!
2GG-	.	8r	.	8A	.	4r	.	iiio2
!	!	!LO:TX:b:i:t=cresc.	!	!	!	!	!	!
.	.	(8AJ	.	8e-J	.	.	.	.
.	.	8E-L	.	8cL)	.	4r	.	.
.	.	8B-	.	8r	.	.	.	.
8FF)	f	8AJ) 8c	f	8fJ 8ff	f	8r	.	I
8r	.	8r	.	8r	.	8r	.	.
==	==	==	==	==	==	==	==	==
*-	*-	*-	*-	*-	*-	*-	*-	*-
!!!system-decoration: [(s1,s2,s3,s4)]
!!!RDF**kern: Z = caesura
